X: 10
T: The Sligo Maid
R: reel
M: 4/4
L: 1/8
K: Ador
|: "Am" A2 BA B/c/d ef | gedB AGEF |"G" G2 BG dGBG | DEGA BAdB |
"Am" A2 BA B/c/d ef | gedB AGEG | "G" B3G A2GE | DEGA "Am" BAA2:||
|: "Am" ea a/a/g a2ga | bgaf gfed |"G" eg g/g/f g2 ge | dega bgag |
"Am" ea a/a/g a2ga | bgaf gfed |"G" eg g/g/g edBA | dBgB "Am"BA A2 :||


Tune 399	Setting 13249

